X:1     %Music
T:The Two Brothers
B: Journal of the English Folk Dance and Song Society, Dec 1957
S:Lucy Stewart, Fetterangus, Aberdeenshire and Donald Stewart of Huntley.
Z:Peter Kennedy
M:2/4     %Meter
L:1/16     %
K:Bm
e3e |e4 e3e |c4 e3e |c4 B3B |[M:3/4][L:1/8] A4
w:There were two pret-ty boys they were go-ing to school,
e3/2e/ |[M:2/4][L:1/16] e6 e2 |d4 e4 |(A6G2| [M:3/4][L:1/8] E4) 
w: In the even-ing com-ing home_*
e2 |[M:2/4][L:1/16] e6 e2 |d4 e4 |c4 B4 |[M:3/4][L:1/8] A4
w: Said Will-iam to his bro-ther John:
 C2 |[M:2/4][L:1/16] E4 E4 |D4 d4 |(c6=c2|[M:3/4][L:1/8] c4)
w: "Oh can you throw a stone?_*
 (c3/2A/) |[M:2/4][L:1/16] A4 E4 |E4 B4 |[M:3/4][L:1/8] A4  |]
w: Oh_  can you throw a  stone?"